X:53302 F:http://www.vwml.org/record/HAM/5/33/2 %%VWML:HAM-5-33-2-0
T:Jack the Sailor
S:Mrs Marina Russell, Upwey coll. HED Hammond O:England
A:Dorset
N:Transcribed from HAM-02-245 F:HAM-05-33-02.abc
Z:EFDSS;PJHeadford M:5/4
L:1/4
Q:1/4=140
K:G
F|GG(GF)G|AA/ A/e2d|BGB2G|EDzzD|
GG(GF)G|AAe2d|BGB2G|EDzzB/c/|
dd(Bc)d|ee(dB)B|cc(BA)G|dBA2D|
GA(BA)G|cde2d|BGc2B|AGzz||
W:Transcribed from HAM-02-245 - Hammond's field notes. The words are from W:Marina Russell, on the verso leaf opposite page 113 of Hammond's notes. W:
W:Up spoke Jack so brisk as a bee
W:"You think I got no money
W:But sailors they are hearty chaps
W:Got gold & silver plenty."
W:Then out he pulled his pocket full
W:'500 Guineas in bright gold
W:'Take this from Jack the Sailor"--
W:
